public/css/images/mount-bg-hd.svg

<?xml version="1.0" encoding="UTF-8" standalone="no"?>
<svg
   xmlns:sketch="http://www.bohemiancoding.com/sketch/ns"
   xmlns:dc="http://purl.org/dc/elements/1.1/"
   xmlns:cc="http://creativecommons.org/ns#"
   xmlns:rdf="http://www.w3.org/1999/02/22-rdf-syntax-ns#"
   xmlns:svg="http://www.w3.org/2000/svg"
   xmlns="http://www.w3.org/2000/svg"
   xmlns:sodipodi="http://sodipodi.sourceforge.net/DTD/sodipodi-0.dtd"
   xmlns:inkscape="http://www.inkscape.org/namespaces/inkscape"
   width="522"
   height="108"
   viewBox="0 0 522 108"
   version="1.1"
   id="svg3053"
   inkscape:version="0.48.4 r9939"
   sodipodi:docname="mount-bg-hd.svg">
  <metadata
     id="metadata3065">
    <rdf:RDF>
      <cc:Work
         rdf:about="">
        <dc:format>image/svg+xml</dc:format>
        <dc:type
           rdf:resource="http://purl.org/dc/dcmitype/StillImage" />
      </cc:Work>
    </rdf:RDF>
  </metadata>
  <sodipodi:namedview
     pagecolor="#ffffff"
     bordercolor="#666666"
     borderopacity="1"
     objecttolerance="10"
     gridtolerance="10"
     guidetolerance="10"
     inkscape:pageopacity="0"
     inkscape:pageshadow="2"
     inkscape:window-width="2794"
     inkscape:window-height="1764"
     id="namedview3063"
     showgrid="false"
     inkscape:zoom="6.3785851"
     inkscape:cx="342.58129"
     inkscape:cy="-7.4892606"
     inkscape:window-x="86"
     inkscape:window-y="36"
     inkscape:window-maximized="1"
     inkscape:current-layer="svg3053" />
  <!-- Generator: Sketch 3.1.1 (8761) - http://www.bohemiancoding.com/sketch -->
  <title
     id="title3055">Imported Layers</title>
  <desc
     id="desc3057">Created with Sketch.</desc>
  <defs
     id="defs3059" />
  <g
     id="Page-1"
     sketch:type="MSPage"
     style="fill:none;stroke:none"
     transform="translate(0,2)">
    <path
       d="M 0,22.799 13.06,10.363 70.96,26.253 87.938,18.308 123.2,35.926 153.674,13.817 196.338,0 l 28.297,33.162 50.064,-15.199 25.685,15.199 25.249,-20.726 59.206,14.508 20.461,-8.981 28.298,13.817 44.404,-13.817 28.732,-6.909 15.673,11.745 0,84.978 -522.407,0 0,-84.978"
       id="Imported-Layers"
       sketch:type="MSShapeGroup"
       inkscape:connector-curvature="0"
       style="fill:#353535" />
  </g>
</svg>

<?xml version="1.0" encoding="UTF-8" standalone="no"?>
<svg width="523px" height="108px" viewBox="0 0 523 108" version="1.1" xmlns="http://www.w3.org/2000/svg" xmlns:xlink="http://www.w3.org/1999/xlink" xmlns:sketch="http://www.bohemiancoding.com/sketch/ns">
    <!-- Generator: Sketch 3.1.1 (8761) - http://www.bohemiancoding.com/sketch -->
    <title>Imported Layers</title>
    <desc>Created with Sketch.</desc>
    <defs></defs>
    <g id="Page-1" stroke="none" stroke-width="1" fill="none" fill-rule="evenodd" sketch:type="MSPage">
        <path d="M0,22.799 L13.06,10.363 L70.96,26.253 L87.938,18.308 L123.2,35.926 L153.674,13.817 L196.338,0 L224.635,33.162 L274.699,17.963 L300.384,33.162 L325.633,12.436 L384.839,26.944 L405.3,17.963 L433.598,31.78 L478.002,17.963 L506.734,11.054 L522.407,22.799 L522.407,107.777 L0,107.777 L0,22.799" id="Imported-Layers" fill="#353535" sketch:type="MSShapeGroup"></path>
    </g>
</svg>
